arcticons-light/symbolic/apps/mindustry-symbolic.svg

<?xml version="1.0" encoding="UTF-8" standalone="no"?>
<svg
   id="Layer_2"
   data-name="Layer 2"
   viewBox="0 0 48 48"
   version="1.1"
   sodipodi:docname="mindustry.svg"
   xmlns:inkscape="http://www.inkscape.org/namespaces/inkscape"
   xmlns:sodipodi="http://sodipodi.sourceforge.net/DTD/sodipodi-0.dtd"
   xmlns="http://www.w3.org/2000/svg"
   xmlns:svg="http://www.w3.org/2000/svg">
  <sodipodi:namedview
     id="namedview1"
     pagecolor="#ffffff"
     bordercolor="#666666"
     borderopacity="1.0"
     inkscape:showpageshadow="2"
     inkscape:pageopacity="0.0"
     inkscape:pagecheckerboard="0"
     inkscape:deskcolor="#d1d1d1" />
  <defs
     id="defs1">
    <style
       id="style1">.cls-1{fill:none;stroke:#000;stroke-width:2px;stroke-linecap:round;stroke-linejoin:round;}</style>
  </defs>
  <path
     style="color:#000000;fill:#000000;stroke-linecap:round;stroke-linejoin:round;-inkscape-stroke:none"
     d="M 16.650391,3.5 A 1.0001,1.0001 0 0 0 15.943359,3.7929688 L 3.8027344,15.943359 a 1.0001,1.0001 0 0 0 -0.2929688,0.707032 v 14.699218 a 1.0001,1.0001 0 0 0 0.2949219,0.708985 l 2.4902344,2.480468 a 1.0001,1.0001 0 0 0 1.4121093,-0.002 L 16.224609,26 h 15.560547 l 8.50586,8.535156 a 1.0001,1.0001 0 0 0 1.417968,0 l 2.46875,-2.478515 a 1.0001,1.0001 0 0 0 0.292969,-0.707032 V 16.650391 A 1.0001,1.0001 0 0 0 44.177734,15.943359 L 32.058594,3.7929688 A 1.0001,1.0001 0 0 0 31.349609,3.5 H 28 a 1.0001,1.0001 0 0 0 -1,1 v 10.996094 l -1.724609,1.724609 H 22.75 L 21,15.492188 V 4.5 a 1.0001,1.0001 0 0 0 -1,-1 z m 0.414062,2 H 19 v 10.410156 a 1.0001,1.0001 0 0 0 0.296875,0.710938 l 2.339844,2.310547 a 1.0001,1.0001 0 0 0 0.703125,0.289062 h 3.349609 a 1.0001,1.0001 0 0 0 0.707031,-0.292969 l 2.310547,-2.310547 A 1.0001,1.0001 0 0 0 29,15.910156 V 5.5 h 1.935547 L 42.470703,17.064453 V 30.9375 L 41,32.414062 32.908203,24.294922 A 1.0001,1.0001 0 0 0 32.199219,24 H 15.810547 a 1.0001,1.0001 0 0 0 -0.708984,0.292969 L 6.9980469,32.416016 5.5097656,30.935547 V 17.064453 Z m 1.775391,24.650391 a 1.0001,1.0001 0 0 0 -0.707032,0.292968 l -7.269531,7.269532 a 1.0001,1.0001 0 0 0 0,1.414062 l 5.089844,5.080078 A 1.0001,1.0001 0 0 0 16.660156,44.5 h 14.679688 a 1.0001,1.0001 0 0 0 0.707031,-0.292969 l 5.089844,-5.089844 a 1.0001,1.0001 0 0 0 0,-1.414062 l -7.259766,-7.259766 a 1.0001,1.0001 0 0 0 -0.707031,-0.292968 z m 0.414062,2 h 9.501953 L 35.015625,38.410156 30.925781,42.5 H 17.074219 l -4.089844,-4.080078 z"
     id="path1" />
</svg>

<?xml version="1.0" encoding="UTF-8"?>
<svg id="Layer_2" data-name="Layer 2" version="1.1" viewBox="0 0 48 48" xmlns="http://www.w3.org/2000/svg">
 <defs id="defs4">
  <style id="style2">.cls-1{fill:none;stroke:#000;stroke-width:2px;stroke-linecap:round;stroke-linejoin:round;}</style>
 </defs>
 <path id="path6" d="m16.65 3.5a1.0001 1.0001 0 0 0-0.70703 0.29297l-12.141 12.15a1.0001 1.0001 0 0 0-0.29297 0.70703v14.699a1.0001 1.0001 0 0 0 0.29492 0.70898l2.4902 2.4805a1.0001 1.0001 0 0 0 1.4121-2e-3l8.5176-8.5371h15.561l8.5059 8.5352a1.0001 1.0001 0 0 0 1.418 0l2.4688-2.4785a1.0001 1.0001 0 0 0 0.29297-0.70703v-14.699a1.0001 1.0001 0 0 0-0.29297-0.70703l-12.119-12.15a1.0001 1.0001 0 0 0-0.70898-0.29297h-3.3496a1.0001 1.0001 0 0 0-1 1v10.996l-1.7246 1.7246h-2.5254l-1.75-1.7285v-10.992a1.0001 1.0001 0 0 0-1-1zm0.41406 2h1.9355v10.41a1.0001 1.0001 0 0 0 0.29688 0.71094l2.3398 2.3105a1.0001 1.0001 0 0 0 0.70312 0.28906h3.3496a1.0001 1.0001 0 0 0 0.70703-0.29297l2.3105-2.3105a1.0001 1.0001 0 0 0 0.29297-0.70703v-10.41h1.9355l11.535 11.564v13.873l-1.4707 1.4766-8.0918-8.1191a1.0001 1.0001 0 0 0-0.70898-0.29492h-16.389a1.0001 1.0001 0 0 0-0.70898 0.29297l-8.1035 8.123-1.4883-1.4805v-13.871zm1.7754 24.65a1.0001 1.0001 0 0 0-0.70703 0.29297l-7.2695 7.2695a1.0001 1.0001 0 0 0 0 1.4141l5.0898 5.0801a1.0001 1.0001 0 0 0 0.70703 0.29297h14.68a1.0001 1.0001 0 0 0 0.70703-0.29297l5.0898-5.0898a1.0001 1.0001 0 0 0 0-1.4141l-7.2598-7.2598a1.0001 1.0001 0 0 0-0.70703-0.29297zm0.41406 2h9.502l6.2598 6.2598-4.0898 4.0898h-13.852l-4.0898-4.0801z" color="#000000" stroke-linecap="round" stroke-linejoin="round" style="-inkscape-stroke:none"/>
</svg>
